exported-svg/trending-down.svg

<svg height="24" viewBox="0 0 24 24" width="24" xmlns="http://www.w3.org/2000/svg"><path d="m22.5 17.2928932v-4.7928932c0-.2761424.2238576-.5.5-.5s.5.2238576.5.5v6c0 .2761424-.2238576.5-.5.5h-6c-.2761424 0-.5-.2238576-.5-.5s.2238576-.5.5-.5h4.7928932l-8.2928932-8.29289322-4.64644661 4.64644662c-.19526215.1952621-.51184463.1952621-.70710678 0l-7.5-7.50000001c-.19526215-.19526215-.19526215-.51184463 0-.70710678s.51184463-.19526215.70710678 0l7.14644661 7.14644659 4.6464466-4.64644659c.1952622-.19526215.5118446-.19526215.7071068 0z"/></svg>

<?xml version="1.0" encoding="UTF-8"?>
<svg width="24px" height="24px" viewBox="0 0 24 24" version="1.1" xmlns="http://www.w3.org/2000/svg" xmlns:xlink="http://www.w3.org/1999/xlink">
    <!-- Generator: Sketch 55.2 (78181) - https://sketchapp.com -->
    <title>trending-down</title>
    <desc>Created with Sketch.</desc>
    <g id="trending-down" stroke="none" stroke-width="1" fill="none" fill-rule="evenodd">
        <path d="M22.5,17.2928932 L22.5,12.5 C22.5,12.2238576 22.7238576,12 23,12 C23.2761424,12 23.5,12.2238576 23.5,12.5 L23.5,18.5 C23.5,18.7761424 23.2761424,19 23,19 L17,19 C16.7238576,19 16.5,18.7761424 16.5,18.5 C16.5,18.2238576 16.7238576,18 17,18 L21.7928932,18 L13.5,9.70710678 L8.85355339,14.3535534 C8.65829124,14.5488155 8.34170876,14.5488155 8.14644661,14.3535534 L0.646446609,6.85355339 C0.451184464,6.65829124 0.451184464,6.34170876 0.646446609,6.14644661 C0.841708755,5.95118446 1.15829124,5.95118446 1.35355339,6.14644661 L8.5,13.2928932 L13.1464466,8.64644661 C13.3417088,8.45118446 13.6582912,8.45118446 13.8535534,8.64644661 L22.5,17.2928932 Z" id="Combined-Shape" fill="#000000" fill-rule="nonzero"></path>
    </g>
</svg>
